symbolic/64x64/apps/prboom-plus.svg

<svg xmlns="http://www.w3.org/2000/svg" width="64" height="64" version="1">
 <path style="opacity:0.2" d="M 20.506809,5.0002618 C 19.115837,5.0207778 17.999988,6.1542347 18,7.5453722 V 15 h -6.363698 c -1.7777534,-3.83e-4 -3.008281,1.676885 -2.3835299,3.341262 l 3.2832569,9.033104 -7.9061609,9.03713 c -1.1550521,1.321307 -0.6578709,3.387621 0.971804,4.038873 l 5.3982189,1.903861 v 5.319872 c 1.4e-4,1.405566 1.203805,2.519657 2.609357,2.519797 H 17 v 7.281382 c -1.1e-4,2.008695 1.944,3.226016 3.638538,2.147437 l 12.872053,-8.492332 22.950482,9.663467 c 2.082211,0.875665 4.188476,-1.193121 3.350363,-3.290749 L 52.994103,39.476068 59.724446,25.426531 C 60.5704,23.734162 59.339797,21.997529 57.44779,21.997469 H 49 v -5.54421 C 48.999623,15.90286 48.9412,15.36741 48.610837,14.927187 L 42.304051,7.1317679 C 41.396417,5.920231 39.638351,5.7638795 38.531165,6.7962311 L 30.786558,14.18652 22.343543,5.7458997 C 21.857214,5.2593591 21.194657,4.990389 20.506809,5.0002618 Z"/>
 <path style="fill:#932b2d" d="M 20.506809,4.0002623 C 19.115837,4.0207783 17.999988,5.1542352 18,6.5453727 V 14 h -6.363698 c -1.7777534,-3.83e-4 -3.008281,1.676885 -2.3835299,3.341262 l 3.2832569,9.033104 -7.9061609,9.03713 c -1.1550521,1.321307 -0.6578709,3.387621 0.971804,4.038873 l 5.3982189,1.903861 v 5.319872 c 1.4e-4,1.405566 1.203805,2.519657 2.609357,2.519797 H 17 v 7.281382 c -1.1e-4,2.008695 1.944,3.226016 3.638538,2.147437 l 12.872053,-8.492332 22.950482,9.663467 c 2.082211,0.875665 4.188476,-1.193121 3.350363,-3.290749 L 52.994103,38.476068 59.724446,24.426531 C 60.5704,22.734162 59.339797,20.997529 57.44779,20.997469 H 49 v -5.54421 C 48.999623,14.90286 48.9412,14.36741 48.610837,13.927187 L 42.304051,6.1317684 C 41.396417,4.9202315 39.638351,4.76388 38.531165,5.7962316 L 30.786558,13.18652 22.343543,4.7459002 C 21.857214,4.2593596 21.194657,3.9903895 20.506809,4.0002623 Z"/>
 <path style="opacity:0.2" d="M 31.099609,24 C 29.936209,24 29,24.976868 29,26.191406 V 30 H 25.191406 C 23.976868,30 23,30.936209 23,32.099609 v 2.800782 C 23,36.063791 23.976868,37 25.191406,37 H 29 v 3.808594 C 29,42.023132 29.936209,43 31.099609,43 h 2.800782 C 35.063791,43 36,42.023132 36,40.808594 V 37 h 3.808594 C 41.023132,37 42,36.063791 42,34.900391 V 32.099609 C 42,30.936209 41.023132,30 39.808594,30 H 36 V 26.191406 C 36,24.976868 35.063791,24 33.900391,24 Z"/>
 <rect style="fill:#e9af00" width="7" height="19" x="29" y="23" rx="2.1" ry="2.192"/>
 <rect style="fill:#e9af00" width="7" height="19" x="29" y="-42" rx="2.1" ry="2.192" transform="rotate(90)"/>
 <path style="opacity:0.2;fill:#ffffff" d="M 31.099609 23 C 29.936209 23 29 23.976868 29 25.191406 L 29 26.191406 C 29 24.976868 29.936209 24 31.099609 24 L 33.900391 24 C 35.063791 24 36 24.976868 36 26.191406 L 36 25.191406 C 36 23.976868 35.063791 23 33.900391 23 L 31.099609 23 z M 25.191406 29 C 23.976868 29 23 29.936209 23 31.099609 L 23 32.099609 C 23 30.936209 23.976868 30 25.191406 30 L 29 30 L 29 29 L 25.191406 29 z M 36 29 L 36 30 L 39.808594 30 C 41.023132 30 42 30.936209 42 32.099609 L 42 31.099609 C 42 29.936209 41.023132 29 39.808594 29 L 36 29 z"/>
 <path style="opacity:0.1;fill:#ffffff" d="M 20.505859 4 C 19.114887 4.020516 17.999988 5.1537844 18 6.5449219 L 18 7.5449219 C 17.999988 6.1537844 19.114887 5.020516 20.505859 5 C 21.193707 4.9901272 21.857421 5.2595532 22.34375 5.7460938 L 30.787109 14.185547 L 38.53125 6.796875 C 39.638436 5.7645234 41.397053 5.9193225 42.304688 7.1308594 L 48.611328 14.927734 C 48.941691 15.367957 48.999623 15.902726 49 16.453125 L 49 15.453125 C 48.999623 14.902726 48.941691 14.367957 48.611328 13.927734 L 42.304688 6.1308594 C 41.397053 4.9193225 39.638436 4.7645234 38.53125 5.796875 L 30.787109 13.185547 L 22.34375 4.7460938 C 21.857421 4.2595531 21.193707 3.9901272 20.505859 4 z M 11.636719 14 C 10.00008 13.999647 8.8466125 15.422926 9.1582031 16.947266 C 9.3964481 15.856087 10.370401 14.999727 11.636719 15 L 18 15 L 18 14 L 11.636719 14 z M 49 20.998047 L 49 21.998047 L 57.447266 21.998047 C 58.733248 21.998088 59.695277 22.806184 59.925781 23.851562 C 60.274488 22.362457 59.124772 20.9981 57.447266 20.998047 L 49 20.998047 z M 12.279297 26.667969 L 4.6289062 35.412109 C 4.0798525 36.040192 3.9168034 36.833654 4.0585938 37.566406 C 4.1435425 37.156121 4.325815 36.758827 4.6289062 36.412109 L 12.535156 27.375 L 12.279297 26.667969 z M 53.205078 39.035156 L 52.994141 39.476562 L 59.810547 57.503906 C 59.871102 57.655463 59.914379 57.804923 59.945312 57.955078 C 60.039322 57.498485 60.009981 57.00305 59.810547 56.503906 L 53.205078 39.035156 z"/>
</svg>

<svg xmlns="http://www.w3.org/2000/svg" width="64" height="64" version="1"><path style="opacity:.2" d="M20.507 5A2.545 2.545 0 0 0 18 7.545V15h-6.364c-1.777 0-3.008 1.677-2.383 3.341l3.283 9.033-7.906 9.037a2.545 2.545 0 0 0 .972 4.04L11 42.353v5.32c0 1.406 1.204 2.52 2.61 2.52H17v7.281c0 2.009 1.944 3.226 3.639 2.148L33.51 51.13l22.95 9.664c2.082.876 4.189-1.193 3.35-3.29l-6.817-18.028 6.73-14.05c.846-1.692-.384-3.428-2.276-3.429H49v-5.544c0-.55-.059-1.086-.39-1.526l-6.306-7.795a2.545 2.545 0 0 0-3.773-.336l-7.744 7.39-8.443-8.44A2.545 2.545 0 0 0 20.507 5z"/><path style="fill:#932b2d" d="M20.507 4A2.545 2.545 0 0 0 18 6.545V14h-6.364c-1.777 0-3.008 1.677-2.383 3.341l3.283 9.033-7.906 9.037a2.545 2.545 0 0 0 .972 4.04L11 41.353v5.32c0 1.406 1.204 2.52 2.61 2.52H17v7.281c0 2.009 1.944 3.226 3.639 2.148L33.51 50.13l22.95 9.664c2.082.876 4.189-1.193 3.35-3.29l-6.817-18.028 6.73-14.05c.846-1.692-.384-3.428-2.276-3.429H49v-5.544c0-.55-.059-1.086-.39-1.526l-6.306-7.795a2.545 2.545 0 0 0-3.773-.336l-7.744 7.39-8.443-8.44A2.545 2.545 0 0 0 20.507 4z"/><path style="opacity:.2" d="M31.1 24c-1.164 0-2.1.977-2.1 2.191V30h-3.809C23.977 30 23 30.936 23 32.1v2.8c0 1.164.977 2.1 2.191 2.1H29v3.809c0 1.214.936 2.191 2.1 2.191h2.8c1.164 0 2.1-.977 2.1-2.191V37h3.809C41.023 37 42 36.064 42 34.9v-2.8c0-1.164-.977-2.1-2.191-2.1H36v-3.809C36 24.977 35.064 24 33.9 24z"/><rect style="fill:#e9af00" width="7" height="19" x="29" y="23" rx="2.1" ry="2.192"/><rect style="fill:#e9af00" width="7" height="19" x="29" y="-42" rx="2.1" ry="2.192" transform="rotate(90)"/><path style="opacity:.2;fill:#fff" d="M31.1 23c-1.164 0-2.1.977-2.1 2.191v1c0-1.214.936-2.191 2.1-2.191h2.8c1.164 0 2.1.977 2.1 2.191v-1C36 23.977 35.064 23 33.9 23h-2.8zm-5.909 6C23.977 29 23 29.936 23 31.1v1c0-1.164.977-2.1 2.191-2.1H29v-1h-3.809zM36 29v1h3.809c1.214 0 2.191.936 2.191 2.1v-1c0-1.164-.977-2.1-2.191-2.1H36z"/><path style="opacity:.1;fill:#fff" d="M20.506 4A2.544 2.544 0 0 0 18 6.545v1a2.544 2.544 0 0 1 4.344-1.799l8.443 8.44 7.744-7.39a2.546 2.546 0 0 1 3.774.335l6.306 7.797c.33.44.389.975.389 1.525v-1c0-.55-.058-1.085-.389-1.525L42.305 6.13a2.546 2.546 0 0 0-3.774-.334l-7.744 7.389-8.443-8.44A2.548 2.548 0 0 0 20.506 4zm-8.87 10c-1.636 0-2.79 1.423-2.478 2.947C9.396 15.857 10.37 15 11.637 15H18v-1h-6.363zM49 20.998v1h8.447c1.286 0 2.248.808 2.479 1.854.348-1.49-.801-2.854-2.479-2.854H49zm-36.72 5.67-7.651 8.744a2.512 2.512 0 0 0-.57 2.154 2.51 2.51 0 0 1 .57-1.154l7.906-9.037-.256-.707zm40.925 12.367-.21.442 6.816 18.027c.06.151.103.3.134.451a2.507 2.507 0 0 0-.134-1.451l-6.606-17.469z"/></svg>
